X:1
T:Title
%%score { ( 1 3 ) | 2 }
L:1/8
M:4/4
K:Bb
V:1 bass nm="Grand Piano"
V:3 bass 
V:2 bass 
V:1
 z4 z2[Q:1/4=100] [F,B,D]>[F,CE] | .[B,DF]2 .[G,_D=E]2 .[B,=DF]2[K:bass] [F,B,D]>[F,C_E] | %2
 [DF]>[_D=E] [=DF]>[DB] [Fd]2 [DB]>[DG] | A2 c2 c2 G>A | [DB]>[Dc] [EB]>[EG] [DF]2 [B,D]>[CE] | %5
 .[DF]2 .[_D=E]2 .[=DF]2 [B,D]>[C_E] | [DF]>[_D=E] [=DF]>[DB] [Fd]2 d>d | c2 c2 c2 [CF]>[DFG] | %8
[M:7/8] [FA]>[GB][FA]>[=EG] F3 |[M:1/4] d>c |[M:4/4] [DB]2 [DF]2 F>B [Dc]>[DB] | A2 z2 E2 c>B | %12
 A2 E2 E>F A>G |[M:3/4] [DF]2 z2 B,2 |[M:1/4] [DF]>[DF] |[M:4/4] d2 c2 B2 [G=B]>[GB] | %16
 [Gc]2 [Gd]2 [Ge]2 [Gd]>[Gc] | [Bf]3 B d2 c2 |[M:3/4] [DB]6 |] %19
V:2
 z4 z2 B,,>B,, | .B,,2 .B,,2 .B,,2 B,,>B,, | %2
 [B,,B,]>[B,,B,] [B,,B,]>[B,,B,] [B,,B,]2 [B,,F,]>[B,,B,] | [F,CE]2 [F,A,E]2 [F,A,E]2 [F,E]>[F,E] | %4
 [B,,F,]>[B,,^F,] [B,,G,]>[B,,B,] [B,,B,]2 [B,,F,]>[B,,F,] | %5
 .[B,,B,]2 .[B,,G,]2 .[B,,B,]2 [B,,F,]>[B,,F,] | %6
 [B,,B,]>[B,,B,] [B,,B,]>[B,,B,] [B,,B,]2[K:treble] [B,F]>[B,F] | %7
 [A,CF]2 [G,B,=E]2 [F,A,F]2[K:bass] A,,>B,, |[M:7/8] [C,C]>[C,C][C,C]>[C,B,] [F,A,]3 | %9
[M:1/4] [F,A,F]>[F,A,E] |[M:4/4] [B,,B,]2 [B,,B,]2 [B,,B,]2 [B,,B,]>[B,,B,] | %11
 [F,CE]2 [F,A,E]2 [F,A,]2 [F,A,E]>[F,B,E] | [F,CE]2 [F,A,C]2 [F,A,C]2 [F,A,E]>[F,A,E] | %13
[M:3/4] [B,,B,]2 [B,,F,B,]2 [B,,F,]2 |[M:1/4] [B,,B,]>[B,,B,] | %15
[M:4/4][K:treble] [B,F]2 [A,D^F]2 [G,DG]2[K:bass] [F,D]>[F,D] | %16
 [E,C]2 [D,=B,]2 [C,C]2 [D,B,]>[E,C] | [F,D]3 [F,DF] [F,B,F]2 [F,A,E]2 |[M:3/4] [B,,F,B,]6 |] %19
V:3
 x8 | x6[K:bass] x2 | x8 | x8 | x8 | x8 | x8 | x8 |[M:7/8] x7 |[M:1/4] x2 |[M:4/4] z4 D2 z2 | %11
 z2 F4 z2 | x8 |[M:3/4] z2 D4 |[M:1/4] x2 |[M:4/4] x8 | x8 | x8 |[M:3/4] x6 |] %19

